images/whistle-blowing.svg

<svg fill="none" height="37" viewBox="0 0 36 37" width="36" xmlns="http://www.w3.org/2000/svg"><path d="m0 .873291h26c5.5228 0 10 4.477149 10 10.000009v26h-26c-5.52285 0-10-4.4772-10-10z" fill="#f05f87"/><g fill="#fff"><path d="m17.8028 21.3814c-1.0169 0-1.8443.8275-1.8443 1.8443s.8274 1.8443 1.8443 1.8443c1.0168 0 1.8442-.8275 1.8442-1.8443s-.8274-1.8443-1.8442-1.8443zm0 2.4591c-.3394 0-.6148-.2767-.6148-.6148s.2754-.6148.6148-.6148c.3393 0 .6147.2767.6147.6148s-.2754.6148-.6147.6148z"/><path d="m19.7676 10.9036c-.348-.3737-.8398-.5877-1.35-.5877h-1.2295c-.5102 0-1.0008.214-1.3488.5877-.3479.3725-.5263.8779-.4906 1.3967l.5201 6.0578c.0713 1.0058.9172 1.7938 1.934 1.7938 1.0082 0 1.8541-.7881 1.9242-1.784l.5299-6.0762c.0369-.509-.1414-1.0143-.4893-1.3881zm-.7352 1.291-.5312 6.0775c-.0258.3651-.3332.6504-.7082.6504-.3664 0-.6725-.2853-.6996-.6603l-.5189-6.0578c-.0123-.1733.0455-.3381.1635-.4635.1181-.1254.2779-.1955.45-.1955h1.2296c.1721 0 .3319.0701.45.1955.118.1254.1758.2902.1648.4537z"/></g></svg>

<svg width="36" height="37" viewBox="0 0 36 37" fill="none" xmlns="http://www.w3.org/2000/svg">
<path d="M0 0.873291H26C31.5228 0.873291 36 5.35044 36 10.8733V36.8733H10C4.47715 36.8733 0 32.3961 0 26.8733V0.873291Z" fill="#F05F87"/>
<path d="M17.8028 21.3814C16.7859 21.3814 15.9585 22.2089 15.9585 23.2257C15.9585 24.2425 16.7859 25.07 17.8028 25.07C18.8196 25.07 19.647 24.2425 19.647 23.2257C19.647 22.2089 18.8196 21.3814 17.8028 21.3814ZM17.8028 23.8405C17.4634 23.8405 17.188 23.5638 17.188 23.2257C17.188 22.8876 17.4634 22.6109 17.8028 22.6109C18.1421 22.6109 18.4175 22.8876 18.4175 23.2257C18.4175 23.5638 18.1421 23.8405 17.8028 23.8405Z" fill="white"/>
<path d="M19.7676 10.9036C19.4196 10.5299 18.9278 10.3159 18.4176 10.3159H17.1881C16.6779 10.3159 16.1873 10.5299 15.8393 10.9036C15.4914 11.2761 15.313 11.7815 15.3487 12.3003L15.8688 18.3581C15.9401 19.3639 16.786 20.1519 17.8028 20.1519C18.811 20.1519 19.6569 19.3638 19.727 18.3679L20.2569 12.2917C20.2938 11.7827 20.1155 11.2774 19.7676 10.9036ZM19.0324 12.1946L18.5012 18.2721C18.4754 18.6372 18.168 18.9225 17.793 18.9225C17.4266 18.9225 17.1205 18.6372 17.0934 18.2622L16.5745 12.2044C16.5622 12.0311 16.62 11.8663 16.738 11.7409C16.8561 11.6155 17.0159 11.5454 17.188 11.5454H18.4176C18.5897 11.5454 18.7495 11.6155 18.8676 11.7409C18.9856 11.8663 19.0434 12.0311 19.0324 12.1946Z" fill="white"/>
</svg>
